dist/icons/svgs/trees-outline.svg

<svg xmlns="http://www.w3.org/2000/svg" width="24" height="24" fill="currentcolor" class="icon-trees-outline" viewBox="0 0 24 24">
  <path d="M7.91428 2.625C8.53928 1.88281 9.6721 1.88281 10.2971 2.625L14.8283 7.97656C15.0627 8.25 15.1018 8.64062 14.9455 8.99219C14.7893 9.30469 14.4768 9.5 14.1252 9.5H13.5393L16.0783 12.6641C16.3127 12.9766 16.3518 13.3672 16.1955 13.6797C16.0393 13.9922 15.7268 14.1875 15.3752 14.1875H14.3596L16.7815 17.625H16.9377V10.4375C16.9377 9.92969 17.3283 9.5 17.8752 9.5C18.383 9.5 18.8127 9.92969 18.8127 10.4375V17.625H23.2268L20.5315 13.7969C20.3362 13.5234 20.2971 13.1328 20.4533 12.8203C20.6096 12.5078 20.9612 12.3125 21.3127 12.3125H22.1721L19.633 9.14844C19.3987 8.875 19.3596 8.48438 19.5158 8.17188C19.6721 7.85938 19.9846 7.625 20.3752 7.625H20.844L17.8752 4.10938L15.5315 6.88281L14.2424 5.47656L16.6643 2.625C17.2893 1.88281 18.4221 1.88281 19.0471 2.625L23.5783 7.97656C23.8127 8.25 23.8518 8.64062 23.6955 8.99219C23.5393 9.30469 23.2268 9.5 22.8752 9.5H22.2893L24.8283 12.6641C25.0627 12.9766 25.1018 13.3672 24.9455 13.6797C24.7893 13.9922 24.4768 14.1875 24.1252 14.1875H23.1096L25.8049 18.0547C26.0002 18.3281 26.0393 18.7188 25.883 19.0312C25.7268 19.3438 25.4143 19.5391 25.0627 19.5391H18.8127V21.1016C18.8127 21.6094 18.383 22.0391 17.8752 22.0391C17.3283 22.0391 16.9377 21.6094 16.9377 21.1016V19.5H16.3127H15.3752H11.0002H10.0627V21.0625C10.0627 21.6094 9.63303 22 9.12522 22C8.57835 22 8.18772 21.6094 8.18772 21.0625V19.5H6.62522H1.93772C1.58616 19.5 1.2346 19.3047 1.07835 18.9922C0.922097 18.6797 0.961159 18.3281 1.15647 18.0547L3.85178 14.1875H2.87522C2.4846 14.1875 2.1721 13.9922 2.01585 13.6797C1.8596 13.3672 1.89866 12.9766 2.13303 12.6641L4.6721 9.5H4.12522C3.7346 9.5 3.4221 9.30469 3.26585 8.99219C3.1096 8.64062 3.14866 8.25 3.38303 7.97656L7.91428 2.625ZM11.0002 17.625H14.4768L11.7815 13.7969C11.5862 13.5234 11.5471 13.1328 11.7033 12.8203C11.8596 12.5078 12.2112 12.3125 12.5627 12.3125H13.4221L10.883 9.14844C10.6487 8.875 10.6096 8.48438 10.7658 8.17188C10.9221 7.85938 11.2346 7.625 11.6252 7.625H12.094L9.12522 4.10938L6.11741 7.625H6.62522C6.97678 7.625 7.28928 7.85938 7.44553 8.17188C7.60178 8.48438 7.56272 8.875 7.32835 9.14844L4.78928 12.3125H5.68772C6.03928 12.3125 6.35178 12.5078 6.50803 12.8203C6.66428 13.1328 6.62522 13.5234 6.42991 13.7969L3.7346 17.625H6.62522H8.18772V10.4375C8.18772 9.92969 8.57835 9.5 9.12522 9.5C9.63303 9.5 10.0627 9.92969 10.0627 10.4375V17.625H11.0002Z"/>
</svg>

<svg xmlns="http://www.w3.org/2000/svg" width="24" height="24" fill="currentColor" class="icon-trees-outline" viewBox="0 0 24 24">
  <path d="M7.914 2.625a1.553 1.553 0 0 1 2.383 0l4.531 5.352c.235.273.274.664.117 1.015a.91.91 0 0 1-.82.508h-.586l2.54 3.164c.234.313.273.703.116 1.016a.91.91 0 0 1-.82.508H14.36l2.422 3.437h.156v-7.187c0-.508.39-.938.937-.938a.95.95 0 0 1 .938.938v7.187h4.414l-2.695-3.828a.97.97 0 0 1-.079-.977c.157-.312.508-.508.86-.508h.86l-2.54-3.164a.9.9 0 0 1-.117-.976.96.96 0 0 1 .86-.547h.468l-2.969-3.516-2.344 2.774-1.289-1.406 2.422-2.852a1.553 1.553 0 0 1 2.383 0l4.531 5.352c.235.273.274.664.117 1.015a.91.91 0 0 1-.82.508h-.586l2.54 3.164c.234.313.273.703.116 1.016a.91.91 0 0 1-.82.508H23.11l2.695 3.867a.97.97 0 0 1 .078.976.91.91 0 0 1-.82.508h-6.25v1.563a.95.95 0 0 1-.938.937.925.925 0 0 1-.937-.937V19.5h-6.875v1.563c0 .546-.43.937-.938.937-.547 0-.937-.39-.937-.937V19.5h-6.25c-.352 0-.703-.195-.86-.508a.9.9 0 0 1 .078-.937l2.696-3.867h-.977c-.39 0-.703-.196-.86-.508-.155-.313-.116-.703.118-1.016L4.673 9.5h-.548c-.39 0-.703-.195-.86-.508-.155-.351-.116-.742.118-1.015zm3.086 15h3.477l-2.696-3.828a.97.97 0 0 1-.078-.977c.157-.312.508-.508.86-.508h.86l-2.54-3.164a.9.9 0 0 1-.117-.976.96.96 0 0 1 .86-.547h.468L9.125 4.109 6.117 7.625h.508c.352 0 .664.234.82.547a.9.9 0 0 1-.117.976L4.79 12.313h.899c.351 0 .664.195.82.507a.97.97 0 0 1-.078.977l-2.695 3.828h4.453v-7.187c0-.508.39-.938.937-.938a.95.95 0 0 1 .938.938v7.187z"/>
</svg>
